X:1
T: The Parson in his Boots
C:
R:Jig
Q:180
K:G
M:6/8
L:1/16
|:G6 G4c2|B4G2 Bcd2B2|G6 B2c2d2|E2F2G2 A2F2D2|
G6 G4c2|B4G2 Bcd2B2|g2f2e2 d2c2B2|A2B2G2 F2E2D2:|
|:B2c2d2 d2e2d2|d2e2d2 d2c2B2|c2d2e2 e2f2e2|e2f2e2 e2d2c2|
B2c2d2 d2e2d2|d2e2d2 d2e2f2|g2f2e2 d2c2B2|A2B2G2 F2E2D2:|
